neru-dark-classic/22x22/devices/media-floppy.svg

<?xml version="1.0" encoding="UTF-8" standalone="no"?>
<svg
   xmlns:dc="http://purl.org/dc/elements/1.1/"
   xmlns:cc="http://creativecommons.org/ns#"
   xmlns:rdf="http://www.w3.org/1999/02/22-rdf-syntax-ns#"
   xmlns:svg="http://www.w3.org/2000/svg"
   xmlns="http://www.w3.org/2000/svg"
   xmlns:sodipodi="http://sodipodi.sourceforge.net/DTD/sodipodi-0.dtd"
   xmlns:inkscape="http://www.inkscape.org/namespaces/inkscape"
   width="22"
   height="22"
   viewBox="0 0 16 16"
   version="1.1"
   id="svg7"
   sodipodi:docname="media-floppy.svg"
   inkscape:version="0.92.1 r">
  <metadata
     id="metadata11">
    <rdf:RDF>
      <cc:Work
         rdf:about="">
        <dc:format>image/svg+xml</dc:format>
        <dc:type
           rdf:resource="http://purl.org/dc/dcmitype/StillImage" />
      </cc:Work>
    </rdf:RDF>
  </metadata>
  <sodipodi:namedview
     pagecolor="#ffffff"
     bordercolor="#666666"
     borderopacity="1"
     objecttolerance="10"
     gridtolerance="10"
     guidetolerance="10"
     inkscape:pageopacity="0"
     inkscape:pageshadow="2"
     inkscape:window-width="769"
     inkscape:window-height="480"
     id="namedview9"
     showgrid="false"
     inkscape:zoom="10.727273"
     inkscape:cx="11"
     inkscape:cy="11"
     inkscape:window-x="0"
     inkscape:window-y="0"
     inkscape:window-maximized="0"
     inkscape:current-layer="svg7" />
  <defs
     id="defs3">
    <style
       id="current-color-scheme"
       type="text/css">
   .ColorScheme-Text { color:#d3dae3; } .ColorScheme-Highlight { color:#5294e2; }
  </style>
  </defs>
  <path
     style="color:#d3dae3;fill:currentColor;stroke-width:0.83116883"
     class="ColorScheme-Text"
     d="m 3.0129868,2.1818182 c -0.4604675,0 -0.8311688,0.3707013 -0.8311688,0.8311688 v 9.142857 l 1.6623377,1.662338 h 9.1428573 c 0.460467,0 0.831169,-0.370701 0.831169,-0.831169 V 3.012987 c 0,-0.4604675 -0.370702,-0.8311688 -0.831169,-0.8311688 z M 3.8441557,3.8441558 H 12.155844 V 12.155844 H 11.324675 V 8 H 4.6753245 v 4.155844 H 3.8441557 Z m 4.1558441,4.987013 H 9.6623375 V 12.155844 H 7.9999998 Z"
     id="path5"
     inkscape:connector-curvature="0" />
</svg>

<svg xmlns="http://www.w3.org/2000/svg" width="22" height="22" viewBox="0 0 16 16" version="1.1" id="svg7"><defs id="defs3"><style id="current-color-scheme" type="text/css"></style></defs><path d="M3.013 2.182a.83.83 0 0 0-.831.831v9.143l1.662 1.662h9.143a.83.83 0 0 0 .831-.831V3.013a.83.83 0 0 0-.831-.831zm.831 1.662h8.312v8.312h-.831V8h-6.65v4.156h-.83zM8 8.831h1.662v3.325H8z" id="path5" color="#d3dae3" fill="currentColor" stroke-width=".831"/></svg>
